X:1
T:Marienhymne
T:Joseph Gabriel Rheinberger (1839-1901)
T:Bernardus Cluniacensis aus seinem Hymnus "Omni die dic Mariae"
T:Marienhymne
T:Copyright © 2016 by CPDL Edited by Alexander Reuter from holograph stored at Bavarian State Library under signatory BSB Mus.ms. 4741-35 urn:nbn:de:bvb:12-bsb00093880-6 This edition can be fully distributed, duplicated, performed and recorded.
T:WoO 30
T:Copyright © 2016 by CPDL Edited by Alexander Reuter from holograph stored at Bavarian State Library under signatory BSB Mus.ms. 4741-35 urn:nbn:de:bvb:12-bsb00093880-6 This edition can be fully distributed, duplicated, performed and recorded.
T:Copyright © 2016 by CPDL Edited by Alexander Reuter from holograph stored at Bavarian State Library under signatory BSB Mus.ms. 4741-35 urn:nbn:de:bvb:12-bsb00093880-6 This edition can be fully distributed, duplicated, performed and recorded.
C:Joseph Gabriel Rheinberger
C:(1839-1901)
Z:Bernardus Cluniacensis
Z:aus seinem Hymnus "Omni die dic Mariae"
Z:Copyright © 2016 by CPDL
Z:Edited by Alexander Reuter from holograph stored at Bavarian State Library under signatory BSB Mus.ms. 4741-35
Z:urn:nbn:de:bvb:12-bsb00093880-6
Z:This edition can be fully distributed, duplicated, performed and recorded.
%%score 1 { ( 2 4 ) | 3 }
L:1/8
M:6/4
K:F
V:1 treble nm="Stimme" snm="Stimme"
V:2 treble nm="Orgel" snm="Org."
V:4 treble 
V:3 bass 
V:1
"^1.""^2.""^3."!<(! A4!<)! A2 | c4 A2!>(! (G2 A2) G2 | F4!>)! C2!<(! G4 G2 | %3
w: Om- ni|di- e dic _ Ma-|ri- ae me- a|
w: Ip- sam|co- le ut _ de|mo- le cri- mi-|
w: O cunc-|ta- rum fe- * mi-|na- rum de- cus|
 A4 A2!<)!!>(! (c2 B2)!>)! A2 | G4 z2!p! A4 A2 | c4 A2 (G2 A2) G2 | F4 C2 G4 G2 | %7
w: lau- des a- * ni-|ma, e- jus|ge- sta, e- * jus|fe- sta co- le|
w: num de- li- * be-|ret, hanc ap-|pel- la, ne _ pro-|cel- la vi- ti-|
w: at- que glo- * ri-|a! Quam e-|lec- tam et _ e-|vec- tam sci- mus|
!<(! A4 d2 (=B2 A2)!<)! B2 | c4 z2 G4 G2 | A4 G2 (G2 A2) =B2 | c4 G2 G4 G2 |"^rit." A4 G2 e4 d2 | %12
w: de- vo- tis- * si-|ma. Con- tem-|pla- re et _ mi-|ra- re e- jus|cel- si- tu- di-|
w: o- rum su- * pe-|ret. Haec per-|so- na no- * bis|bo- na con- tu-|lit cae- les- ti-|
w: su- per om- * ni-|a. Cle- mens|au- di, tu- * ae|lau- di quos in-|stan- tes con- spi-|
 (!fermata!d4 !fermata!c2)"^A tempo" F4 G2 |!p! A4 G2 A4 B2 | c4 c2 B4 B2 | A4 A2 (G2 F2) G2 | %16
w: nem _ Dic fe-|li- cem ge- ni-|tri- cem dic be-|a- tam vir- * gi-|
w: a, _ haec re-|gi- na nos di-|vi- na il- lus-|tra- vit gra- * ti-|
w: cis: _ mun- da|re- os, et fac|e- os do- nis|dig- nos coe- * li-|
 A4 z2!f! d4 d2 | c4 A2 (G2 A2) G2 | !fermata!F6 x6 |] %19
w: nem, dic be-|a- tam vir- * gi-|nem.|
w: a, il- lus-|tra- vit gra- * ti-|a.|
w: cis, do- nis|dig- nos coe- * li-|cis.|
V:2
!p! [CFA]6 | c4 A2 (G2 A2) G2 | F4 C2-!<(! G4 G2 | A4 A2!<)!!>)!!>(! ([Ac]2 [GB]2) [FA]2 | %4
 [CEG]6 [CFA]6 | c4 A2 G2 A2 G2 | F4 C2- G6 | [CFA]4 [FAd]2 =B2 A2 B2 | [Cc]6 G4 [EG]2 | %9
 [FA]4 G2 [=B,G]2 [CA]2 [D=B]2 | c4 G2 [CG]4 [EG]2 | [FA]4 [EG]2 [Gce]4 [G=Bd]2 | %12
 !fermata![F=Bd]4 !fermata![Ec]2 F4 G2 | A4 G2- A4 _B2 | c4 c2 B6 | [FA]6 [=EG]2 [DF]2 [EG]2 | %16
 [^CEA]6 [Dd]4 [Ed]2 | =c4 A2 [DG]2 [CA]2 [B,G]2 | !fermata![A,F]6 x6 |] %19
V:3
 F,,6 | A,,6 C,6 | F,6 E,6 | F,6 F,,4 A,,2 | C,2 B,,2 G,,2 F,,6 | A,,6 C,6 | F,6 E,6 | %7
 F,2 E,2 D,2 G,4 G,,2 | C,4 D,2 E,4 C,2 | F,4 E,2 D,4 G,,2 | C,6 E,2 D,2 C,2 | %11
 =B,,4 C,2 E,,2 F,,2 G,,2 | !fermata!C,6 D,4 E,2 | F,4 E,2 F,4 G,2 | A,4 ^F,2 G,4 G,,2 | %15
 A,,2 B,,2 =B,,2 C,4 _B,,2 | A,,6 B,,6 | A,,2 B,,2 =B,,2 C,4- [C,,C,-]2 | [F,,C,]6 x6 |] %19
V:4
 x6 | [CE]6 [B,E]6 | A,6 C6 | [C-F]6 C6 | x12 | [CE]6 [B,E]6 | A,6 C6 | z6 [DG]4 [DF]2 | E4 F2 C6 | %9
 C6 F6 | [CE]6 G2 F2 C2 | x12 | x6 F2 E2 D2 | C6 G2 F2 E2 | _E6 D4- [DG]2 | C12 | x12 | %17
 F4 [D-F]2 E6 | x12 |] %19

